storage/app/icons/phosphoricons/duotone/notion-logo-duotone.svg

<svg xmlns="http://www.w3.org/2000/svg" fill="currentColor" viewBox="0 0 256 256"><path d="M192 208h-40L64 48h40Z" opacity=".2"/><path d="M216 40h-48a8 8 0 0 0 0 16h16v120.85L111 44.14a8 8 0 0 0-7-4.14H40a8 8 0 0 0 0 16h16v144H40a8 8 0 0 0 0 16h48a8 8 0 0 0 0-16H72V79.15l73 132.71a8 8 0 0 0 7 4.14h40a8 8 0 0 0 8-8V56h16a8 8 0 0 0 0-16m-59.27 160L77.53 56h21.74l79.2 144Z"/></svg>

<svg xmlns="http://www.w3.org/2000/svg" viewBox="0 0 256 256" fill="currentColor"><path d="M192,208H152L64,48h40Z" opacity="0.2"/><path d="M216,40H168a8,8,0,0,0,0,16h16V176.85L111,44.14A8,8,0,0,0,104,40H40a8,8,0,0,0,0,16H56V200H40a8,8,0,0,0,0,16H88a8,8,0,0,0,0-16H72V79.15l73,132.71a8,8,0,0,0,7,4.14h40a8,8,0,0,0,8-8V56h16a8,8,0,0,0,0-16ZM156.73,200,77.53,56H99.27l79.2,144Z"/></svg>
